X:221
T:score296
L:1/8
Q:1/4=120
M:4/4
I:linebreak $
K:G
 d4 B3 c | d4 G4 | ABcd c2 B2 | A6 z2 | dcde d2 d2 | g4 d4 | c2 B2 A4 | G6 z2 |] %8
